X:100
T: MEIN LIEBE FRAU MUTTER
N: E0056B
O: Europa, Mitteleuropa, Oesterreich, Lilienfeld
R: erzaehlendes Volks - Lied, Sage, Kinds - Mord
M: 3/4
L: 1/8
K: Bb
F2 | FBB3c | cdd3
B | cde2d2 | c3z
F2 | FBB3c | cdd3
B | dcB2A2 | B4

